docs/icons/cl.svg

<svg xmlns="http://www.w3.org/2000/svg" width="117" height="117" viewBox="0 0 117 117" fill="none">

<path fill-rule="evenodd" clip-rule="evenodd" d="M94.3637 67.6331C94.8895 67.1073 94.678 66.2121 93.9726 65.9772L53.8962 52.6316C53.1146 52.3713 52.3712 53.1147 52.6314 53.8963L65.9771 93.9727C66.212 94.6781 67.1072 94.8896 67.6329 94.3639L77.7136 84.2832C78.1041 83.8927 78.7373 83.8927 79.1278 84.2832L91.6125 96.7679C92.0031 97.1584 92.6362 97.1584 93.0267 96.7679L96.7678 93.0269C97.1583 92.6363 97.1583 92.0032 96.7678 91.6126L84.2831 79.1279C83.8926 78.7374 83.8926 78.1042 84.2831 77.7137L94.3637 67.6331Z" fill="white"/>
<path d="M33.3402 35.9606V38.9858C33.3402 42.7674 33.2236 45.6208 32.9905 47.546C32.7573 49.4712 32.0694 51.2474 30.9269 52.8746C29.8076 54.5019 27.9656 55.877 25.4006 57C28.4086 58.1689 30.4838 59.9336 31.6264 62.2942C32.7689 64.632 33.3402 67.8864 33.3402 72.0576V78.6239C33.3402 80.3886 33.4685 81.7294 33.725 82.6461C34.0048 83.5629 34.576 84.2504 35.4388 84.7088C36.3249 85.1901 37.7239 85.4307 39.6359 85.4307H41V91H37.9221C34.098 91 31.2999 89.9343 29.5278 87.8028C27.779 85.6714 26.9046 82.0158 26.9046 76.8362V71.7139C26.9046 67.6343 26.3333 64.6893 25.1908 62.8787C24.0715 61.0681 22.0079 60.0711 19 59.8878V54.1122C21.4017 53.9747 23.1622 53.3674 24.2814 52.2902C25.4006 51.213 26.1118 49.8379 26.4149 48.1648C26.7414 46.4917 26.9046 44.3374 26.9046 41.7017V38.3327C26.9046 34.3906 27.2077 31.3539 27.814 29.2224C28.4436 27.091 29.6444 25.5211 31.4165 24.5126C33.1887 23.5042 35.7652 23 39.1463 23H41V28.5349H40.2305C38.3651 28.5349 36.9428 28.7068 35.9634 29.0506C34.9841 29.3714 34.2962 30.0361 33.8998 31.0445C33.5268 32.0529 33.3402 33.6916 33.3402 35.9606Z" fill="#35BA67"/>
<path d="M83.6598 38.9858V35.9606C83.6598 33.6916 83.4732 32.0529 83.1002 31.0445C82.7038 30.0361 82.0159 29.3714 81.0366 29.0506C80.0572 28.7068 78.6349 28.5349 76.7695 28.5349H76V23H77.8537C81.2348 23 83.8113 23.5042 85.5835 24.5126C87.3556 25.5211 88.5564 27.091 89.186 29.2224C89.7923 31.3539 90.0954 34.3906 90.0954 38.3327V41.7017C90.0954 44.3374 90.2586 46.4917 90.5851 48.1648C90.8882 49.8379 91.5994 51.213 92.7186 52.2902C93.8378 53.3674 95.5983 53.9747 98 54.1122V59.8878L91.5994 57C89.0344 55.877 87.1924 54.5019 86.0731 52.8746C84.9306 51.2474 84.2427 49.4712 84.0095 47.546C83.7764 45.6208 83.6598 42.7674 83.6598 38.9858Z" fill="#35BA67"/>
</svg>

<svg xmlns="http://www.w3.org/2000/svg" width="117" height="117" fill="none" xmlns:v="https://vecta.io/nano"><path fill-rule="evenodd" d="M94.364 67.633a1 1 0 0 0-.391-1.656L53.896 52.632a1 1 0 0 0-1.265 1.265l13.346 40.076a1 1 0 0 0 1.656.391l10.081-10.081a1 1 0 0 1 1.414 0l12.485 12.485a1 1 0 0 0 1.414 0l3.741-3.741a1 1 0 0 0 0-1.414L84.283 79.128a1 1 0 0 1 0-1.414l10.081-10.081z" fill="#fff"/><path d="M33.34 35.961v3.025l-.35 8.56c-.233 1.925-.921 3.701-2.064 5.329-1.119 1.627-2.961 3.002-5.526 4.125 3.008 1.169 5.083 2.934 6.226 5.294 1.143 2.338 1.714 5.592 1.714 9.763v6.566c0 1.765.128 3.105.385 4.022a3.37 3.37 0 0 0 1.714 2.063c.886.481 2.285.722 4.197.722H41V91h-3.078c-3.824 0-6.622-1.066-8.394-3.197-1.749-2.131-2.623-5.787-2.623-10.967v-5.122c0-4.08-.571-7.025-1.714-8.835-1.119-1.811-3.183-2.808-6.191-2.991v-5.776c2.402-.138 4.162-.745 5.281-1.822s1.83-2.452 2.133-4.125c.326-1.673.49-3.827.49-6.463v-3.369c0-3.942.303-6.979.909-9.11.63-2.131 1.83-3.701 3.602-4.71S35.765 23 39.146 23H41v5.535h-.77c-1.865 0-3.288.172-4.267.516-.979.321-1.667.986-2.064 1.994-.373 1.008-.56 2.647-.56 4.916zm50.32 3.025v-3.025c0-2.269-.187-3.908-.56-4.916-.396-1.008-1.084-1.673-2.064-1.994-.979-.344-2.402-.516-4.267-.516H76V23h1.854c3.381 0 5.958.504 7.73 1.513s2.973 2.578 3.603 4.71c.606 2.131.909 5.168.909 9.11v3.369c0 2.636.163 4.79.49 6.463.303 1.673 1.014 3.048 2.133 4.125s2.88 1.685 5.281 1.822v5.776L91.599 57c-2.565-1.123-4.407-2.498-5.526-4.125a11.58 11.58 0 0 1-2.064-5.329c-.234-1.926-.35-4.779-.35-8.56z" fill="#35ba67"/></svg>
